X: 1
T: Godfather's, The
M: 4/4
L: 1/8
R: reel
K: Dmix
DFAB A2 FA|dBcA GEcE|DFAB A2 FA|GAFG EFGE|
DFAB A2 FA|dBcA G3 (c|B)z ({Bd}BA) B(d{e}dc)|cdcA GEcE:|
E(B{d}BA) dBAF|GBAF GFEF|D(d{e}dc) dcAG|FGAB cBAG|
E(B{d}BA) dBAF|GBAF GFEF|[D2A2] (3[DA][DA][DA] BAFA|1dfeA B2 GF:|2BAGF E2 FE|
